X: 248
T:The Railway
% Nottingham Music Database
S:Trad, arr Phil Rowe
M:6/8
K:G
D|"G"G2G GBd|g2d d2d|"Am"e2d c2B|"D7"ABG FED|
"G"G2G GBd|"G"g2d d2d|"C"edc "G"BAG|"D7"A3 "G"G2::
d|"G"b2b b2a|g2g g2d|"C"e2d efg|"D7"a2g fed|
"Bm"bbb b2a|"Em"ggg g2d|"A7"efg "D7"agf|"G"g3 -g2:|


